resources/haticons/SVG/home_work.svg

<!-- Generated by IcoMoon.io -->
<svg version="1.1" xmlns="http://www.w3.org/2000/svg" width="24" height="24" viewBox="0 0 24 24">
<title>home_work</title>
<path d="M9.984 3h13.031v18h-6v-3.984h1.969v-2.016h-1.969v-2.016h1.969v-1.969h-1.969v-1.828l-2.016-1.359v-0.844h-1.266q-1.594-1.031-3.75-2.484v-1.5zM8.156 5.719l6.844 4.547v10.734h-5.016v-8.016h-3.984v8.016h-5.016v-10.5z"></path>
</svg>

<svg xmlns="http://www.w3.org/2000/svg" width="24" height="24"><path d="M9.984 3h13.031v18h-6v-3.984h1.969V15h-1.969v-2.016h1.969v-1.969h-1.969V9.187l-2.016-1.359v-.844h-1.266Q12.139 5.953 9.983 4.5V3zM8.156 5.719L15 10.266V21H9.984v-8.016H6V21H.984V10.5z"/></svg>
